X:15261
T:Shandon Bells
R:jig
S:Natalie McMaster
H:
N:
D:Solo Album #1
Z:Adrian Scahill
M:6/8
L:1/8
K:D
AFD DFA|ded cBA|BGE EGA|B2A Bcd|\
AFD DFA|ded cBA|Bcd ecA|ded d3:||\
fed dcd|faa afd|cAA eAA|cBc efg|\
fed dcd|faa afd|Bcd ecA|ded d3:||
